X: 30595
T: One Hour , The
R: waltz
M: 3/4
K: Gmajor
Bc^c|:ed BB BB|cB GG GG|AG DD DD|ca a a3:|
D>E FG AB|dc AA AA|BA FF FF|GF GA Bc|d^c dc dc|
ed BB BB|cB GG GG|AG EF GA|Bc de fg|
fd BB BB|dc AA AA|cB GG GG|G2 z2 z2||
|:A2 a2 a2|e4 d^c|d2 b2 d2|g4 d^c|d2 b2 d2|g4 d^c|
d2 af d2|af d2 af|d2 b2 d2|g4 d^c|d2 b2 d2|g4 d^c|
d2 af d2|af d2 af|1 ba gf ed|d4 d^c:|2 b2 ag fa|g4||

